src/asset/120/start_invest_second.svg

<svg width="120" height="120" viewBox="0 0 120 120" fill="none" xmlns="http://www.w3.org/2000/svg">
    <rect x="73" y="25" width="17" height="70" fill="url(#paint0_linear)"/>
    <rect x="51" y="52" width="17" height="43" fill="url(#paint1_linear)"/>
    <rect x="29" y="64" width="17" height="31" fill="url(#paint2_linear)"/>
    <path d="M62.9733 29.0069L54.537 30.1095C53.7679 30.2053 53.4554 31.1401 54.0082 31.6675L56.1474 33.8007L35.7415 49.5724C34.9003 50.2196 34.7561 51.418 35.4051 52.257C35.7896 52.7363 36.3424 53 36.9193 53C37.3279 53 37.7365 52.8802 38.097 52.5925L58.8874 36.5092L61.3149 38.9301C61.8677 39.4814 62.7811 39.1458 62.8772 38.4028L63.9828 29.9896C64.103 29.4383 63.5742 28.935 62.9733 29.0069Z" fill="url(#paint3_linear)"/>
    <defs>
        <linearGradient id="paint0_linear" x1="73" y1="95" x2="105.106" y2="87.2027" gradientUnits="userSpaceOnUse">
            <stop stop-color="#FFC75D"/>
            <stop offset="1" stop-color="#FFA363"/>
        </linearGradient>
        <linearGradient id="paint1_linear" x1="51" y1="95" x2="80.4041" y2="83.3751" gradientUnits="userSpaceOnUse">
            <stop stop-color="#FFC75D"/>
            <stop offset="1" stop-color="#FFA363"/>
        </linearGradient>
        <linearGradient id="paint2_linear" x1="29" y1="95" x2="55.1392" y2="80.6656" gradientUnits="userSpaceOnUse">
            <stop stop-color="#FFC75D"/>
            <stop offset="1" stop-color="#FFA363"/>
        </linearGradient>
        <linearGradient id="paint3_linear" x1="35.0167" y1="53.0159" x2="64.0262" y2="53.0159" gradientUnits="userSpaceOnUse">
            <stop stop-color="#5C8BFC"/>
            <stop offset="1" stop-color="#84B0FF"/>
        </linearGradient>
    </defs>
</svg>

<svg width="120" height="120" fill="none" xmlns="http://www.w3.org/2000/svg"><path fill="url(#paint0_linear)" d="M73 25h17v70H73z"/><path fill="url(#paint1_linear)" d="M51 52h17v43H51z"/><path fill="url(#paint2_linear)" d="M29 64h17v31H29z"/><path d="M62.973 29.007l-8.436 1.102c-.77.096-1.082 1.031-.529 1.558l2.14 2.134L35.74 49.572a1.906 1.906 0 00-.336 2.685c.385.48.937.743 1.514.743.409 0 .818-.12 1.178-.407l20.79-16.084 2.428 2.421a.918.918 0 001.562-.527l1.106-8.413c.12-.552-.409-1.055-1.01-.983z" fill="url(#paint3_linear)"/><defs><linearGradient id="paint0_linear" x1="73" y1="95" x2="105.106" y2="87.203" gradientUnits="userSpaceOnUse"><stop stop-color="#FFC75D"/><stop offset="1" stop-color="#FFA363"/></linearGradient><linearGradient id="paint1_linear" x1="51" y1="95" x2="80.404" y2="83.375" gradientUnits="userSpaceOnUse"><stop stop-color="#FFC75D"/><stop offset="1" stop-color="#FFA363"/></linearGradient><linearGradient id="paint2_linear" x1="29" y1="95" x2="55.139" y2="80.666" gradientUnits="userSpaceOnUse"><stop stop-color="#FFC75D"/><stop offset="1" stop-color="#FFA363"/></linearGradient><linearGradient id="paint3_linear" x1="35.017" y1="53.016" x2="64.026" y2="53.016" gradientUnits="userSpaceOnUse"><stop stop-color="#5C8BFC"/><stop offset="1" stop-color="#84B0FF"/></linearGradient></defs></svg>
